Yaru++/apps/scalable/pdfshuffler.svg

<svg height="256" width="256" xmlns="http://www.w3.org/2000/svg" xmlns:xlink="http://www.w3.org/1999/xlink">
  <linearGradient id="linearGradient4226" gradientTransform="matrix(0 -.453125 -.45311204 0 253.29054 239.17477)" gradientUnits="userSpaceOnUse" x1="494.345" x2="4.414" y1="386.295" y2="169.657">
    <stop offset="0" stop-color="#e8e8e8"/>
    <stop offset="1" stop-color="#f5f5f5"/>
  </linearGradient>
  <linearGradient id="linearGradient4358" gradientUnits="userSpaceOnUse" x1="88" x2="488" y1="88" y2="488">
    <stop offset="0" stop-opacity=".588235"/>
    <stop offset=".88" stop-opacity="0"/>
    <stop offset="1"/>
  </linearGradient>
  <filter id="filter4380" color-interpolation-filters="sRGB" height="1.088" width="1.106" x="-.05" y="-.04">
    <feGaussianBlur stdDeviation="8.48"/>
  </filter>
  <filter id="filter4346" color-interpolation-filters="sRGB" height="1.022" width="1.026" x="-.01" y="-.01">
    <feGaussianBlur stdDeviation="2.12"/>
  </filter>
  <path d="m189.84323 74c-70.59344 0-78.18921 7.250835-77.84323 77.98706v146.01294 146.01294c-.34598 70.73623 7.24979 77.98706 77.84323 77.98706h196.31354c70.59344 0 76.00668-7.27384 77.84323-77.98706v-146.01294-146.01294c0-70.737067-7.24979-77.98706-77.84323-77.98706z" filter="url(#filter4346)" opacity=".1" transform="matrix(.5 0 0 .5 -16.666462 -20.825235)"/>
  <path d="m189.84323 74c-70.59344 0-78.18921 7.250835-77.84323 77.98706v146.01294 146.01294c-.34598 70.73623 7.24979 77.98706 77.84323 77.98706h196.31354c70.59344 0 77.84323-7.24999 77.84323-77.98706v-146.01294-146.01294c0-70.737067-7.24979-77.98706-77.84323-77.98706z" fill="url(#linearGradient4358)" filter="url(#filter4380)" opacity=".3" transform="matrix(.5 0 0 .5 -16.666462 -20.825235)"/>
  <path d="m77.145139 13.174765c-36.098811 0-39.983003 3.690158-39.806081 39.689842v74.310163 74.31016c-.176922 35.99969 3.70727 39.68984 39.806081 39.68984h100.387321c36.09881 0 39.80608-3.68973 39.80608-39.68984v-74.31016-74.310163c0-36.000113-3.70727-39.689842-39.80608-39.689842z" opacity=".1"/>
  <path d="m176.40652 15.174765c35.29673 0 39.09461 3.625418 38.92162 38.99353v73.006475 73.00647c.17299 35.36812-3.62489 38.99353-38.92162 38.99353h-98.156761c-35.296716 0-38.921616-3.625-38.921616-38.99353v-73.00647-73.006475c0-35.368533 3.6249-38.99353 38.921616-38.99353z" fill="url(#linearGradient4226)"/>
  <path d="m215.32768 187.18063-51.99414 51.99414h13.07227c35.29673 0 39.09486-3.62602 38.92187-38.99414z" fill="#fff"/>
  <path d="m78.255419 15.174765c-35.296728 0-39.09487 3.626029-38.92188 38.994141v2c-.17299-35.368112 3.625152-38.994141 38.92188-38.994141h98.156241c35.29673 0 38.92188 3.625608 38.92188 38.994141v-2c0-35.368533-3.62515-38.994141-38.92188-38.994141z" fill="#fff" opacity=".3"/>
  <path d="m78.260819 239.17477c-35.296731 0-39.094875-3.62603-38.921885-38.99414v-2c-.17299 35.36811 3.625154 38.99414 38.921885 38.99414h98.156241c35.29673 0 38.92188-3.62561 38.92188-38.99414v2c0 35.36853-3.62515 38.99414-38.92188 38.99414z" opacity=".2"/>
  <path d="m127.33353 15.174765v224.000005h49.07228c35.29673 0 39.09486-3.62602 38.92187-38.99414v-73.00586-73.005864c.17299-35.368112-3.62514-38.994141-38.92187-38.994141z" fill="#fff" opacity=".2"/>
  <path d="m39.32768 127.17477v73.00586c0 35.36853 3.625159 38.99414 38.921879 38.99414h98.156251c35.29673 0 39.09486-3.62602 38.92187-38.99414v-73.00586z" fill="#fff" opacity=".2"/>
  <g enable-background="new" transform="translate(-24.666461 -28.825605)">
    <path d="m72 108v-8.000001h136.66665v8.000001z" fill="#c8c4b7" fill-opacity=".996078"/>
    <path d="m160 124v-8h71.33333v8z" fill="#aea795" fill-opacity=".997386"/>
    <path d="m160 140v-8h32v8z" fill="#aea795" fill-opacity=".997386"/>
    <path d="m160 155.92689v-7.92689h71.33333v7.92689z" fill="#c8c4b7" fill-opacity=".996078"/>
    <path d="m72 212v-8h159.99998v8z" fill="#c8c4b7" fill-opacity=".996078"/>
    <path d="m125.42423 132c-4.55633 0-8.25 3.69364-8.25 8.25 0 4.55635 3.69367 8.25 8.25 8.25 4.55634 0 8.25-3.69365 8.25-8.25 0-4.55636-3.69365-8.25-8.25-8.25zm-24.84741 7.43628-16.57682 28.56372h37.68961l-11.01562-21.11207-3.10473 5.95094z" fill="#e7e7df"/>
    <g fill="#c8c4b7" fill-opacity=".996078">
      <path d="m160 171.92689v-7.92689h71.33333v7.92689z"/>
      <path d="m72 196v-7.92689h159.99999v7.92689z"/>
      <path d="m72 228v-8h96v8z"/>
      <path d="m72 92v-8h159.99998v8z"/>
    </g>
    <circle cx="199.989" cy="209.769" fill="#f22c42" r="64"/>
    <g fill="#fff" transform="matrix(5.2000885 0 0 5.2000885 160.86317 168.29316)">
      <path d="m6.156.487-.004.002c-.054 0-.125.005-.213.014a1.78 1.78 0 0 0 -.295.056.632.632 0 0 0 -.233.108.373.373 0 0 0 -.123.158.447.447 0 0 0 -.036.2c.003.074.022.151.038.237.369 2.056.71 4.119 1.053 6.18l.838-3.128zm1.344 5.015-.913 3.406.038.23 1.35 2.165.654 2.443c.088.329.216.616.384.861s.365.44.591.584c.227.144.479.236.757.275.272.041.557.021.855-.058.297-.08.553-.206.769-.377a1.9 1.9 0 0 0 .51-.615c.123-.238.2-.505.228-.803.023-.296-.01-.609-.098-.938a2.712 2.712 0 0 0 -.383-.853 2.164 2.164 0 0 0 -.599-.582 1.888 1.888 0 0 0 -.754-.267 1.945 1.945 0 0 0 -.847.056c-.214.064-.42.163-.666.14a.52.52 0 0 1 -.236-.08.588.588 0 0 1 -.167-.187 1.656 1.656 0 0 1 -.107-.301zm0 2.485a.525.525 0 0 1 .525.524.525.525 0 0 1 -.525.525.525.525 0 0 1 -.525-.525.525.525 0 0 1 .525-.524zm2.998 3.84a.888.888 0 0 1 .615.204c.239.192.414.495.525.909.112.419.113.774.004 1.065a.91.91 0 0 1 -.65.567c-.319.085-.598.03-.839-.168-.246-.196-.425-.503-.537-.923-.11-.414-.108-.764.008-1.051.11-.291.324-.48.642-.565.08-.021.157-.034.232-.038z"/>
      <path d="m8.844.487v.002h-.001l-.323 1.199h.001l-2.387 8.912a1.66 1.66 0 0 1 -.107.301.588.588 0 0 1 -.167.187.514.514 0 0 1 -.236.08c-.245.023-.452-.077-.667-.14a1.945 1.945 0 0 0 -.846-.056 1.887 1.887 0 0 0 -.754.267 2.164 2.164 0 0 0 -.6.582c-.166.24-.294.524-.382.853a2.784 2.784 0 0 0 -.098.938c.029.298.105.565.229.803a1.9 1.9 0 0 0 .51.615c.215.171.471.297.768.376.298.08.583.1.855.059.278-.04.53-.131.757-.276.226-.144.423-.338.59-.583.169-.245.297-.532.385-.861l.655-2.443 1.349-2.166c.479-2.618.825-5.262 1.33-7.875.016-.085.034-.163.037-.237a.515.515 0 0 0 -.035-.2.375.375 0 0 0 -.123-.158.63.63 0 0 0 -.234-.106 1.802 1.802 0 0 0 -.296-.056 2.842 2.842 0 0 0 -.204-.015zm-1.344 7.5a.525.525 0 0 1 .525.524.525.525 0 0 1 -.525.525.525.525 0 0 1 -.525-.525.525.525 0 0 1 .525-.524zm-2.998 3.84c.075.004.152.017.232.038.318.085.532.274.642.565.116.287.119.637.008 1.051-.112.42-.291.727-.537.923-.24.197-.52.253-.839.168a.91.91 0 0 1 -.65-.567c-.11-.29-.108-.646.004-1.065.111-.414.286-.717.525-.91a.888.888 0 0 1 .615-.203z"/>
    </g>
    <g transform="translate(-.045372 .056889)">
      <path d="m200.11107 145.71184a64 64 0 0 0 -64 64 64 64 0 0 0 .041 1.16992 64 64 0 0 1 63.95898-63.16992 64 64 0 0 1 63.95899 62.82813 64 64 0 0 0 .041-.82813 64 64 0 0 0 -64-64z" fill="#fff" opacity=".3"/>
      <path d="m263.91616 204.55629a64 67.914079 0 0 1 -63.95898 67.03322 64 67.914079 0 0 1 -63.95898-66.67673 64 67.914079 0 0 0 -.041.88498 64 67.914079 0 0 0 64 67.91407 64 67.914079 0 0 0 64-67.91407 64 67.914079 0 0 0 -.041-1.24147z" opacity=".2"/>
    </g>
  </g>
  <g transform="translate(118.62551 -10.354895)">
    <path d="m-71.291971 97.52929v64h72v-4.92308h-67.2v-59.07692z" fill="#9a9996"/>
    <path d="m-61.68 127.08h14.4v24.615h-14.4z" fill="#a347ba"/>
    <path d="m-42.48 107.39h14.4v44.308h-14.4z" fill="#ff7800"/>
    <path d="m-23.28 112.31h14.4v39.385h-14.4z" fill="#ed333b"/>
  </g>
</svg>

<?xml version="1.0" encoding="UTF-8" standalone="no"?>
<svg
   xmlns:osb="http://www.openswatchbook.org/uri/2009/osb"
   xmlns:dc="http://purl.org/dc/elements/1.1/"
   xmlns:cc="http://creativecommons.org/ns#"
   xmlns:rdf="http://www.w3.org/1999/02/22-rdf-syntax-ns#"
   xmlns:svg="http://www.w3.org/2000/svg"
   xmlns="http://www.w3.org/2000/svg"
   xmlns:xlink="http://www.w3.org/1999/xlink"
   xmlns:sodipodi="http://sodipodi.sourceforge.net/DTD/sodipodi-0.dtd"
   xmlns:inkscape="http://www.inkscape.org/namespaces/inkscape"
   width="256"
   height="256"
   version="1.1"
   id="svg88"
   sodipodi:docname="pdfshuffler.svg"
   inkscape:version="0.92.4 (5da689c313, 2019-01-14)">
  <metadata
     id="metadata92">
    <rdf:RDF>
      <cc:Work
         rdf:about="">
        <dc:format>image/svg+xml</dc:format>
        <dc:type
           rdf:resource="http://purl.org/dc/dcmitype/StillImage" />
        <dc:title></dc:title>
      </cc:Work>
    </rdf:RDF>
  </metadata>
  <sodipodi:namedview
     pagecolor="#ffffff"
     bordercolor="#666666"
     borderopacity="1"
     objecttolerance="10"
     gridtolerance="10"
     guidetolerance="10"
     inkscape:pageopacity="0"
     inkscape:pageshadow="2"
     inkscape:window-width="1920"
     inkscape:window-height="1016"
     id="namedview90"
     showgrid="false"
     inkscape:zoom="3.4425878"
     inkscape:cx="134.96354"
     inkscape:cy="126.92923"
     inkscape:window-x="0"
     inkscape:window-y="27"
     inkscape:window-maximized="1"
     inkscape:current-layer="g76" />
  <defs
     id="defs22">
    <linearGradient
       id="linearGradient5606"
       osb:paint="solid">
      <stop
         id="stop5608"
         offset="0"
         style="stop-color:#000000" />
    </linearGradient>
    <linearGradient
       id="linearGradient4526"
       osb:paint="solid">
      <stop
         id="stop4528"
         offset="0"
         style="stop-color:#ffffff" />
    </linearGradient>
    <linearGradient
       id="linearGradient3600-4"
       osb:paint="gradient">
      <stop
         id="stop3602-7"
         offset="0"
         style="stop-color:#f4f4f4" />
      <stop
         id="stop3604-6"
         offset="1"
         style="stop-color:#dbdbdb" />
    </linearGradient>
    <linearGradient
       id="linearGradient4226"
       x1="494.345"
       x2="4.414"
       y1="386.295"
       y2="169.657"
       gradientTransform="matrix(0,-0.453125,-0.45311204,0,253.29054,239.17477)"
       gradientUnits="userSpaceOnUse"
       xlink:href="#linearGradient4245" />
    <linearGradient
       id="linearGradient4245">
      <stop
         id="stop4241"
         offset="0"
         style="stop-color:#e8e8e8" />
      <stop
         id="stop4243"
         offset="1"
         style="stop-color:#f5f5f5" />
    </linearGradient>
    <linearGradient
       id="linearGradient4358"
       x1="88"
       x2="488"
       y1="88"
       y2="488"
       gradientUnits="userSpaceOnUse"
       xlink:href="#linearGradient4360" />
    <linearGradient
       id="linearGradient4360">
      <stop
         id="stop4362"
         offset="0"
         style="stop-color:#000000;stop-opacity:0.58823532" />
      <stop
         style="stop-color:#000000;stop-opacity:0"
         id="stop4364"
         offset=".88" />
      <stop
         id="stop4366"
         offset="1"
         style="stop-color:#000000" />
    </linearGradient>
    <filter
       style="color-interpolation-filters:sRGB"
       id="filter4380"
       width="1.106"
       height="1.088"
       x="-.05"
       y="-.04">
      <feGaussianBlur
         id="feGaussianBlur4382"
         stdDeviation="8.48" />
    </filter>
    <filter
       style="color-interpolation-filters:sRGB"
       id="filter4346"
       width="1.026"
       height="1.022"
       x="-.01"
       y="-.01">
      <feGaussianBlur
         id="feGaussianBlur4348"
         stdDeviation="2.12" />
    </filter>
  </defs>
  <path
     style="opacity:0.1;filter:url(#filter4346)"
     d="M 189.84323,74 C 119.24979,74 111.65402,81.250835 112,151.98706 V 298 444.01294 C 111.65402,514.74917 119.24979,522 189.84323,522 H 386.15677 C 456.75021,522 462.16345,514.72616 464,444.01294 V 298 151.98706 C 464,81.249993 456.75021,74 386.15677,74 Z"
     transform="matrix(0.5,0,0,0.5,-16.666462,-20.825235)"
     id="path24" />
  <path
     d="M 189.84323,74 C 119.24979,74 111.65402,81.250835 112,151.98706 V 298 444.01294 C 111.65402,514.74917 119.24979,522 189.84323,522 H 386.15677 C 456.75021,522 464,514.75001 464,444.01294 V 298 151.98706 C 464,81.249993 456.75021,74 386.15677,74 Z"
     transform="matrix(0.5,0,0,0.5,-16.666462,-20.825235)"
     style="opacity:0.3;fill:url(#linearGradient4358);filter:url(#filter4380)"
     id="path26" />
  <path
     style="opacity:0.1"
     d="m 77.145139,13.174765 c -36.098811,0 -39.983003,3.690158 -39.806081,39.689842 v 74.310163 74.31016 c -0.176922,35.99969 3.70727,39.68984 39.806081,39.68984 H 177.53246 c 36.09881,0 39.80608,-3.68973 39.80608,-39.68984 V 127.17477 52.864607 c 0,-36.000113 -3.70727,-39.689842 -39.80608,-39.689842 z"
     id="path28" />
  <path
     style="fill:url(#linearGradient4226)"
     d="m 176.40652,15.174765 c 35.29673,0 39.09461,3.625418 38.92162,38.99353 v 73.006475 73.00647 c 0.17299,35.36812 -3.62489,38.99353 -38.92162,38.99353 H 78.249759 c -35.296716,0 -38.921616,-3.625 -38.921616,-38.99353 V 127.17477 54.168295 c 0,-35.368533 3.6249,-38.99353 38.921616,-38.99353 z"
     id="path30" />
  <path
     style="fill:#ffffff"
     d="m 215.32768,187.18063 -51.99414,51.99414 h 13.07227 c 35.29673,0 39.09486,-3.62602 38.92187,-38.99414 z"
     id="path32" />
  <path
     style="opacity:0.3;fill:#ffffff"
     d="m 78.255419,15.174765 c -35.296728,0 -39.09487,3.626029 -38.92188,38.994141 v 2 c -0.17299,-35.368112 3.625152,-38.994141 38.92188,-38.994141 h 98.156241 c 35.29673,0 38.92188,3.625608 38.92188,38.994141 v -2 c 0,-35.368533 -3.62515,-38.994141 -38.92188,-38.994141 z"
     id="path34" />
  <path
     style="opacity:0.2"
     d="m 78.260819,239.17477 c -35.296731,0 -39.094875,-3.62603 -38.921885,-38.99414 v -2 c -0.17299,35.36811 3.625154,38.99414 38.921885,38.99414 h 98.156241 c 35.29673,0 38.92188,-3.62561 38.92188,-38.99414 v 2 c 0,35.36853 -3.62515,38.99414 -38.92188,38.99414 z"
     id="path36" />
  <path
     style="opacity:0.2;fill:#ffffff"
     d="M 127.33353,15.174765 V 239.17477 h 49.07228 c 35.29673,0 39.09486,-3.62602 38.92187,-38.99414 V 127.17477 54.168906 c 0.17299,-35.368112 -3.62514,-38.994141 -38.92187,-38.994141 z"
     id="path38" />
  <path
     style="opacity:0.2;fill:#ffffff"
     d="m 39.32768,127.17477 v 73.00586 c 0,35.36853 3.625159,38.99414 38.921879,38.99414 h 98.156251 c 35.29673,0 39.09486,-3.62602 38.92187,-38.99414 v -73.00586 z"
     id="path40" />
  <g
     style="enable-background:new"
     transform="translate(-24.666461,-28.825605)"
     id="g76">
    <path
       style="fill:#c8c4b7;fill-opacity:0.99607843"
       d="M 72,108 V 99.999999 H 208.66665 V 108 Z"
       id="path42" />
    <path
       style="fill:#aea795;fill-opacity:0.99738566"
       d="m 160,124 v -8 h 71.33333 v 8 z"
       id="path44" />
    <path
       d="m 160,140 v -8 h 32 v 8 z"
       style="fill:#aea795;fill-opacity:0.99738566"
       id="path46" />
    <path
       style="fill:#c8c4b7;fill-opacity:0.99607843"
       d="M 160,155.92689 V 148 h 71.33333 v 7.92689 z"
       id="path48" />
    <path
       d="m 72,212 v -8 h 159.99998 v 8 z"
       style="fill:#c8c4b7;fill-opacity:0.99607843"
       id="path50" />
    <path
       d="M 160,171.92689 V 164 h 71.33333 v 7.92689 z"
       style="fill:#c8c4b7;fill-opacity:0.99607843"
       id="path54" />
    <path
       style="fill:#c8c4b7;fill-opacity:0.99607843"
       d="m 72,196 v -7.92689 H 231.99999 V 196 Z"
       id="path56" />
    <path
       d="m 72,228 v -8 h 96 v 8 z"
       style="fill:#c8c4b7;fill-opacity:0.99607843"
       id="path58" />
    <path
       d="m 72,92 v -8 h 159.99998 v 8 z"
       style="fill:#c8c4b7;fill-opacity:0.99607843"
       id="path60" />
    <circle
       style="fill:#f22c42"
       cx="199.989"
       cy="209.769"
       r="64"
       id="circle62" />
    <g
       style="font-weight:500;font-size:33.10900116px;font-family:Ubuntu;letter-spacing:0;word-spacing:0;text-anchor:middle;fill:#ffffff"
       font-size="33.109"
       font-weight="500"
       letter-spacing="0"
       transform="matrix(5.2000885,0,0,5.2000885,160.86317,168.29316)"
       word-spacing="0"
       id="g68">
      <path
         style="fill:#ffffff"
         d="M 6.156,0.487 6.152,0.489 c -0.054,0 -0.125,0.005 -0.213,0.014 A 1.78,1.78 0 0 0 5.644,0.559 0.632,0.632 0 0 0 5.411,0.667 0.373,0.373 0 0 0 5.288,0.825 0.447,0.447 0 0 0 5.252,1.025 C 5.255,1.099 5.274,1.176 5.29,1.262 5.659,3.318 6,5.381 6.343,7.442 L 7.181,4.314 Z M 7.5,5.502 6.587,8.908 l 0.038,0.23 1.35,2.165 0.654,2.443 c 0.088,0.329 0.216,0.616 0.384,0.861 0.168,0.245 0.365,0.44 0.591,0.584 0.227,0.144 0.479,0.236 0.757,0.275 0.272,0.041 0.557,0.021 0.855,-0.058 0.297,-0.08 0.553,-0.206 0.769,-0.377 a 1.9,1.9 0 0 0 0.51,-0.615 c 0.123,-0.238 0.2,-0.505 0.228,-0.803 0.023,-0.296 -0.01,-0.609 -0.098,-0.938 a 2.712,2.712 0 0 0 -0.383,-0.853 2.164,2.164 0 0 0 -0.599,-0.582 1.888,1.888 0 0 0 -0.754,-0.267 1.945,1.945 0 0 0 -0.847,0.056 c -0.214,0.064 -0.42,0.163 -0.666,0.14 A 0.52,0.52 0 0 1 9.14,11.089 0.588,0.588 0 0 1 8.973,10.902 1.656,1.656 0 0 1 8.866,10.601 Z m 0,2.485 A 0.525,0.525 0 0 1 8.025,8.511 0.525,0.525 0 0 1 7.5,9.036 0.525,0.525 0 0 1 6.975,8.511 0.525,0.525 0 0 1 7.5,7.987 Z m 2.998,3.84 a 0.888,0.888 0 0 1 0.615,0.204 c 0.239,0.192 0.414,0.495 0.525,0.909 0.112,0.419 0.113,0.774 0.004,1.065 a 0.91,0.91 0 0 1 -0.65,0.567 c -0.319,0.085 -0.598,0.03 -0.839,-0.168 C 9.907,14.208 9.728,13.901 9.616,13.481 9.506,13.067 9.508,12.717 9.624,12.43 c 0.11,-0.291 0.324,-0.48 0.642,-0.565 0.08,-0.021 0.157,-0.034 0.232,-0.038 z"
         id="path64" />
      <path
         style="fill:#ffffff"
         d="M 8.844,0.487 V 0.489 H 8.843 L 8.52,1.688 H 8.521 L 6.134,10.6 A 1.66,1.66 0 0 1 6.027,10.901 0.588,0.588 0 0 1 5.86,11.088 0.514,0.514 0 0 1 5.624,11.168 C 5.379,11.191 5.172,11.091 4.957,11.028 a 1.945,1.945 0 0 0 -0.846,-0.056 1.887,1.887 0 0 0 -0.754,0.267 2.164,2.164 0 0 0 -0.6,0.582 c -0.166,0.24 -0.294,0.524 -0.382,0.853 a 2.784,2.784 0 0 0 -0.098,0.938 c 0.029,0.298 0.105,0.565 0.229,0.803 a 1.9,1.9 0 0 0 0.51,0.615 c 0.215,0.171 0.471,0.297 0.768,0.376 0.298,0.08 0.583,0.1 0.855,0.059 0.278,-0.04 0.53,-0.131 0.757,-0.276 0.226,-0.144 0.423,-0.338 0.59,-0.583 0.169,-0.245 0.297,-0.532 0.385,-0.861 L 7.026,11.302 8.375,9.136 C 8.854,6.518 9.2,3.874 9.705,1.261 9.721,1.176 9.739,1.098 9.742,1.024 A 0.515,0.515 0 0 0 9.707,0.824 0.375,0.375 0 0 0 9.584,0.666 0.63,0.63 0 0 0 9.35,0.56 1.802,1.802 0 0 0 9.054,0.504 2.842,2.842 0 0 0 8.85,0.489 Z M 7.5,7.987 A 0.525,0.525 0 0 1 8.025,8.511 0.525,0.525 0 0 1 7.5,9.036 0.525,0.525 0 0 1 6.975,8.511 0.525,0.525 0 0 1 7.5,7.987 Z m -2.998,3.84 c 0.075,0.004 0.152,0.017 0.232,0.038 0.318,0.085 0.532,0.274 0.642,0.565 0.116,0.287 0.119,0.637 0.008,1.051 -0.112,0.42 -0.291,0.727 -0.537,0.923 -0.24,0.197 -0.52,0.253 -0.839,0.168 A 0.91,0.91 0 0 1 3.358,14.005 C 3.248,13.715 3.25,13.359 3.362,12.94 3.473,12.526 3.648,12.223 3.887,12.03 a 0.888,0.888 0 0 1 0.615,-0.203 z"
         id="path66" />
    </g>
    <g
       transform="translate(-0.04537246,0.05688865)"
       id="g74">
      <path
         d="m 200.11107,145.71184 a 64,64 0 0 0 -64,64 64,64 0 0 0 0.041,1.16992 64,64 0 0 1 63.95898,-63.16992 64,64 0 0 1 63.95899,62.82813 64,64 0 0 0 0.041,-0.82813 64,64 0 0 0 -64,-64 z"
         style="opacity:0.3;fill:#ffffff"
         id="path70" />
      <path
         d="m 263.91616,204.55629 a 64,67.914079 0 0 1 -63.95898,67.03322 64,67.914079 0 0 1 -63.95898,-66.67673 64,67.914079 0 0 0 -0.041,0.88498 64,67.914079 0 0 0 64,67.91407 64,67.914079 0 0 0 64,-67.91407 64,67.914079 0 0 0 -0.041,-1.24147 z"
         style="opacity:0.2"
         id="path72" />
    </g>
  </g>
  <g
     transform="translate(118.62551,-10.354895)"
     id="g86">
    <path
       d="m -71.291971,97.52929 v 64 h 72 v -4.92308 h -67.2 V 97.52929 Z"
       style="fill:#9a9996"
       id="path78" />
    <rect
       width="14.4"
       height="24.615"
       x="-61.68"
       y="127.08"
       style="fill:#a347ba"
       id="rect80" />
    <rect
       width="14.4"
       height="44.308"
       x="-42.48"
       y="107.39"
       style="fill:#ff7800"
       id="rect82" />
    <rect
       width="14.4"
       height="39.385"
       x="-23.28"
       y="112.31"
       style="fill:#ed333b"
       id="rect84" />
  </g>
</svg>
